X:1013
T:Waltz
C:anon.
O:Germany
A:Berlin
R:German waltz
Z:Transcribed by Frank Nordberg - http://www.musicaviva.com
F:http://abc.musicaviva.com/tunes/germany/german-waltz.abc
V:1 Program 1 40 %Violin
M:3/8
L:1/8
Q:3/8=66
K:A
"_f".A(A,/G,/A,/G,/|A,).C.E|.A(cB|A).G.F|.E(d/c/d/c/|d).c.B|
.A(GF)|(FE) E|.A(A,/G,/A,/G,/|A,).C.E|.F(B/^A/B/A/|B).c.d|
.e(E/^D/E/D/|E).F.G|(A/c/)e.d/.B/|A2 z :: .G.A.G|(F/G/)(E/F/).^D|
.B.c.A|(G/A/)(F/G/).E|"_dim."Be>G|"_dim."BE>G|(B,/^D/F/A/G/F/)|E2 z:|
|:"_f"(EA).A|(G/A/B/A/)"_dim."(E|c2)(A|E).C.A|(EB).B|(^A/B/c/B/)"_dim."(E|
d2)(B|G).B,.E|(EA).A|(G/A/B/A/).E|(EB).B|
(^A/B/c/B/).E|"_dim"(Ee)d/c/|c>BA|.G/.F/E "_dim."(c/B/)|A2 z:|
W:
W:
W:  From Musica Viva - http://www.musicaviva.com
W:  the Internet center for free sheet music downloads.


